X:15141
T:Se\'an is Sin\'ead (this is what I'll call it for now, anyway)
S:irtrad-l, Henrik Norbeck, 6/97
R:reel
Z:id:hn-reel-519
M:C|
K:Amix
e2dg eABd|(3efe dg dGBd|egdg eAAd|Bdgd BGBd:|
cA~A2 cABd|cAAd BGBd|cA~A2 EAcA|BGBc dfed|
cA~A2 cABd|cA~A2 gGBd|cA~A2 agfa|gfge defg||
agae ceAf|gfgd Bdgb|agae ceAc|(3Bcd gd BAAa|
eaae ceAf|gfge defg|afge fded|Bdgb afge||
fedf eA~A2|gedf (3efg fa|fedf eAAd|(3BcB gb afge|
fedf eA~A2|gedf (3efg fg|afge fded|Bdgb afgf||
